file/dc-shoes.svg

<svg clip-rule="evenodd" fill-rule="evenodd" stroke-linejoin="round" stroke-miterlimit="1.41421" viewBox="0 0 560 400" xmlns="http://www.w3.org/2000/svg"><g fill="#070909" fill-rule="nonzero" transform="matrix(1.30304 0 0 1.30304 16.1328 4.08896)"><path d="m265.102 199.771c-25.26 1.83-35.877-3.66-35.877-3.66 36.976-45.028.366-91.521.366-91.521 6.955-5.857 35.511-5.491 35.511-5.491v17.207h36.242v-50.521c-79.074-3.296-101.774 16.473-101.774 16.473-24.527-19.77-99.941-16.474-99.941-16.474l-.732 92.62h37.707v-58.94c13.545-1.464 34.412 5.125 34.412 5.125-34.778 50.888.366 91.156.366 91.156-12.447 7.321-35.877 4.394-35.877 4.394v-21.599h-35.876v54.913c80.173 5.49 100.309-14.278 100.309-14.278 31.117 17.207 57.11 15.376 57.11 15.376l44.662.732v-56.379h-36.608zm-64.066-25.259c-17.572-25.626-1.099-47.591-1.099-47.591 18.305 22.698 1.099 47.591 1.099 47.591z"/><path d="m288.043 138.636-3.781-14.034-5.005 13.911-13.424-5.613 7.933 12.326-12.08 7.687 14.032 1.22-2.073 14.399 9.882-10.128 9.763 10.128-1.586-14.278 14.4-1.341-12.204-7.566 7.689-11.959z"/></g></svg>

<?xml version="1.0" encoding="UTF-8" standalone="no"?>
<!DOCTYPE svg PUBLIC "-//W3C//DTD SVG 1.1//EN" "http://www.w3.org/Graphics/SVG/1.1/DTD/svg11.dtd">
<svg width="100%" height="100%" viewBox="0 0 560 400" version="1.1" xmlns="http://www.w3.org/2000/svg" xmlns:xlink="http://www.w3.org/1999/xlink" xml:space="preserve" xmlns:serif="http://www.serif.com/" style="fill-rule:evenodd;clip-rule:evenodd;stroke-linejoin:round;stroke-miterlimit:1.41421;">
    <g transform="matrix(1.30304,0,0,1.30304,16.1328,4.08896)">
        <path id="dc_1_" d="M265.102,199.771C239.842,201.601 229.225,196.111 229.225,196.111C266.201,151.083 229.591,104.59 229.591,104.59C236.546,98.733 265.102,99.099 265.102,99.099L265.102,116.306L301.344,116.306L301.344,65.785C222.27,62.489 199.57,82.258 199.57,82.258C175.043,62.488 99.629,65.784 99.629,65.784L98.897,158.404L136.604,158.404L136.604,99.464C150.149,98 171.016,104.589 171.016,104.589C136.238,155.477 171.382,195.745 171.382,195.745C158.935,203.066 135.505,200.139 135.505,200.139L135.505,178.54L99.629,178.54L99.629,233.453C179.802,238.943 199.938,219.175 199.938,219.175C231.055,236.382 257.048,234.551 257.048,234.551L301.71,235.283L301.71,178.904L265.102,178.904L265.102,199.771ZM201.036,174.512C183.464,148.886 199.937,126.921 199.937,126.921C218.242,149.619 201.036,174.512 201.036,174.512Z" style="fill:rgb(7,9,9);fill-rule:nonzero;"/>
        <path id="star" d="M288.043,138.636L284.262,124.602L279.257,138.513L265.833,132.9L273.766,145.226L261.686,152.913L275.718,154.133L273.645,168.532L283.527,158.404L293.29,168.532L291.704,154.254L306.104,152.913L293.9,145.347L301.589,133.388L288.043,138.636Z" style="fill:rgb(7,9,9);fill-rule:nonzero;"/>
    </g>
</svg>
